static/assets/img/icons/theme/weather/rainbow.svg

<svg height="24" viewBox="0 0 24 24" width="24" xmlns="http://www.w3.org/2000/svg"><g fill="none" fill-rule="evenodd"><path d="m0 0h24v24h-24z" opacity="0"/><g fill="#000"><path d="m5.07063123 16c.48812061-3.4218711 3.43411226-6 6.92936877-6 3.4955057 0 6.4413027 2.5784053 6.9293689 6h-2.029387c-.4632703-2.2822403-2.481024-4-4.8999819-4-2.41895791 0-4.43671155 1.7177597-4.89998188 4zm4.09932643 0c.4135069-1.1721885 1.53386804-2 2.83004234-2 1.2962528 0 2.4165517.8278812 2.8300407 2z" opacity=".3"/><path d="m12 6c5.7380426 0 10.4499282 4.3935 10.955157 10h-2.0100856c-.008552-.0773607-.0180843-.1544258-.0285844-.2311828-.600275-4.3880751-4.3635737-7.7688172-8.916487-7.7688172-4.54950846 0-8.31058288 3.3756875-8.91513498 7.7589741-.01103529.080011-.02101884.1603578-.02993624.2410259h-2.01009397c.50523698-5.6065 5.21712263-10 10.95516519-10z"/><path d="m12 6c5.7380426 0 10.4499282 4.3935 10.955157 10h-2.0100856c-.008552-.0773607-.0180843-.1544258-.0285844-.2311828-.600275-4.3880751-4.3635737-7.7688172-8.916487-7.7688172-4.54950846 0-8.31058288 3.3756875-8.91513498 7.7589741-.01103529.080011-.02101884.1603578-.02993624.2410259h-2.01009397c.50523698-5.6065 5.21712263-10 10.95516519-10z"/></g></g></svg>

<svg width="24px" height="24px" viewBox="0 0 24 24" version="1.1" xmlns="http://www.w3.org/2000/svg" xmlns:xlink="http://www.w3.org/1999/xlink">
    <title>Icon For Rainbow</title>
    <g stroke="none" stroke-width="1" fill="none" fill-rule="evenodd">
        <polygon points="0 0 24 0 24 24 0 24" opacity="0"></polygon>
        <path d="M5.07063123,16 C5.55875184,12.5781289 8.50474349,10 12,10 C15.4955057,10 18.4413027,12.5784053 18.9293689,16 L16.8999819,16 C16.4367116,13.7177597 14.4189579,12 12,12 C9.58104209,12 7.56328845,13.7177597 7.10001812,16 L5.07063123,16 Z M9.16995766,16 C9.58346456,14.8278115 10.7038257,14 12,14 C13.2962528,14 14.4165517,14.8278812 14.8300407,16 L9.16995766,16 Z" fill="#000000" opacity="0.3"></path>
        <path d="M12,6 C17.7380426,6 22.4499282,10.3935 22.955157,16 L20.9450714,16 C20.9365194,15.9226393 20.9269871,15.8455742 20.916487,15.7688172 C20.316212,11.3807421 16.5529133,8 12,8 C7.45049154,8 3.68941712,11.3756875 3.08486502,15.7589741 C3.07382973,15.8389851 3.06384618,15.9193319 3.05492878,16 L1.04483481,16 C1.55007179,10.3935 6.26195744,6 12,6 Z" fill="#000000"></path>
        <path d="M12,6 C17.7380426,6 22.4499282,10.3935 22.955157,16 L20.9450714,16 C20.9365194,15.9226393 20.9269871,15.8455742 20.916487,15.7688172 C20.316212,11.3807421 16.5529133,8 12,8 C7.45049154,8 3.68941712,11.3756875 3.08486502,15.7589741 C3.07382973,15.8389851 3.06384618,15.9193319 3.05492878,16 L1.04483481,16 C1.55007179,10.3935 6.26195744,6 12,6 Z" fill="#000000"></path>
    </g>
</svg>
